src/assets/duotone/CloudPlus.svg

<svg width="24" height="24" viewBox="0 0 24 24"  xmlns="http://www.w3.org/2000/svg">
<path d="M13.47 14.39H10.53C9.26 14.39 8.5 15.15 8.5 16.42V19.36C8.5 20.63 9.26 21.39 10.53 21.39H13.47C14.74 21.39 15.5 20.63 15.5 19.36V16.42C15.5 15.15 14.74 14.39 13.47 14.39ZM14.41 18.32C14.31 18.42 14.16 18.49 14 18.5H12.59L12.6 19.89C12.59 20.06 12.53 20.2 12.41 20.32C12.31 20.42 12.16 20.49 12 20.49C11.67 20.49 11.4 20.22 11.4 19.89V18.49L10 18.5C9.67 18.5 9.4 18.22 9.4 17.89C9.4 17.56 9.67 17.29 10 17.29L11.4 17.3V15.9C11.4 15.57 11.67 15.29 12 15.29C12.33 15.29 12.6 15.57 12.6 15.9L12.59 17.29H14C14.33 17.29 14.6 17.56 14.6 17.89C14.59 18.06 14.52 18.2 14.41 18.32Z" />
<path opacity="0.4" d="M21.74 11.7401C21.13 9.74005 19.61 8.30005 17.7 7.87005C17.14 5.37005 15.6 3.58005 13.42 2.90005C11.04 2.17005 8.28 2.88005 6.55 4.69005C5.02 6.28005 4.52 8.47005 5.11 10.8001C2.98 11.3201 2 13.1801 2 14.8601C2 16.7401 3.23 18.8501 5.97 19.0401H8.5V16.4101C8.5 15.1401 9.26 14.3801 10.53 14.3801H13.47C14.74 14.3801 15.5 15.1401 15.5 16.4101V19.0401H16.31C16.32 19.0401 16.34 19.0401 16.35 19.0401C17.77 19.0401 19.13 18.5101 20.17 17.5601C21.8 16.1401 22.4 13.9101 21.74 11.7401Z" />
</svg>

<?xml version="1.0" encoding="UTF-8"?>
<svg width="24" height="24" viewBox="0 0 24 24" xmlns="http://www.w3.org/2000/svg">
 <path d="m13.47 14.39h-2.94c-1.27 0-2.03 0.76-2.03 2.03v2.94c0 1.27 0.76 2.03 2.03 2.03h2.94c1.27 0 2.03-0.76 2.03-2.03v-2.94c0-1.27-0.76-2.03-2.03-2.03zm0.94 3.93c-0.1 0.1-0.25 0.17-0.41 0.18h-1.41l0.01 1.39c-0.01 0.17-0.07 0.31-0.19 0.43-0.1 0.1-0.25 0.17-0.41 0.17-0.33 0-0.6-0.27-0.6-0.6v-1.4l-1.4 0.01c-0.33 0-0.6-0.28-0.6-0.61s0.27-0.6 0.6-0.6l1.4 0.01v-1.4c0-0.33 0.27-0.61 0.6-0.61s0.6 0.28 0.6 0.61l-0.01 1.39h1.41c0.33 0 0.6 0.27 0.6 0.6-0.01 0.17-0.08 0.31-0.19 0.43z"/>
 <path d="m21.74 11.74c-0.61-2-2.13-3.44-4.04-3.87-0.56-2.5-2.1-4.29-4.28-4.97-2.38-0.73-5.14-0.02-6.87 1.79-1.53 1.59-2.03 3.78-1.44 6.11-2.13 0.52-3.11 2.38-3.11 4.06 0 1.88 1.23 3.99 3.97 4.18h2.53v-2.63c0-1.27 0.76-2.03 2.03-2.03h2.94c1.27 0 2.03 0.76 2.03 2.03v2.63h0.81 0.04c1.42 0 2.78-0.53 3.82-1.48 1.63-1.42 2.23-3.65 1.57-5.82z" opacity=".4"/>
</svg>
